X: 4154
T: Blue Head, The
R: reel
M: 4/4
K: Gmajor
E|:DGFG BGFG|dGFG DCB,A,|G,B,DG G,CEG|A,^CEA DFAd|
DGFG BGFG|dGeG dBGD|EGce dBGB|1 cAFD G3 E:|2 cAFD G3 d||
|:gd^cd edcd|bdad gd^cd|ecBc acgc|fd^cd bdad|
gd^cd edcd|bdad gd^cd|ecBc dBGB|1 cAFD G3 d:|2 cAFD G4||

